icons/mobile/24/svg/wallpaper-24.svg

<!-- This Source Code Form is subject to the terms of the Mozilla Public
   - License, v. 2.0. If a copy of the MPL was not distributed with this
   - file, You can obtain one at http://mozilla.org/MPL/2.0/. -->
<svg width="24" height="24" viewBox="0 0 24 24" fill="none" xmlns="http://www.w3.org/2000/svg">
    <path d="M4.75 18.5C4.75 18.9138 5.08625 19.25 5.5 19.25H10.75V21H5.5C4.11975 21 3 19.8802 3 18.5V13.25H4.75V18.5Z" fill="black" />
    <path d="M21 18.5C21 19.8802 19.8802 21 18.5 21H13.25V19.25H18.5C18.9138 19.25 19.25 18.9138 19.25 18.5V13.25H21V18.5Z" fill="black" />
    <path d="M9.82422 10.6953C10.2142 10.3033 10.8473 10.3024 11.2393 10.6914L14 13.4395L14.792 12.6924C15.187 12.3204 15.8065 12.3298 16.1885 12.7148L16.9609 13.4941C17.1469 13.6811 17.251 13.9343 17.251 14.1982V16.5C17.25 16.914 16.914 17.25 16.5 17.25H7.5C7.086 17.25 6.75 16.914 6.75 16.5V14.1992C6.75 13.9352 6.85505 13.6811 7.04102 13.4941L9.82422 10.6953Z" fill="black" />
    <path d="M10.75 4.75H5.5C5.08625 4.75 4.75 5.08625 4.75 5.5V10.75H3V5.5C3 4.11975 4.11975 3 5.5 3H10.75V4.75Z" fill="black" />
    <path d="M18.5 3C19.8802 3 21 4.11975 21 5.5V10.75H19.25V5.5C19.25 5.08625 18.9138 4.75 18.5 4.75H13.25V3H18.5Z" fill="black" />
</svg>

<!-- This Source Code Form is subject to the terms of the Mozilla Public
   - License, v. 2.0. If a copy of the MPL was not distributed with this
   - file, You can obtain one at http://mozilla.org/MPL/2.0/. -->
<svg xmlns="http://www.w3.org/2000/svg" width="24" height="24" fill="none" viewBox="0 0 24 24">
    <path fill="#000" d="M4.75 18.5c0 .414.336.75.75.75h5.25V21H5.5A2.5 2.5 0 0 1 3 18.5v-5.25h1.75zM21 18.5a2.5 2.5 0 0 1-2.5 2.5h-5.25v-1.75h5.25a.75.75 0 0 0 .75-.75v-5.25H21z" />
    <path fill="#000" d="M9.824 10.695a1 1 0 0 1 1.415-.004L14 13.44l.792-.748a1 1 0 0 1 1.397.023l.772.78c.186.186.29.44.29.703V16.5a.75.75 0 0 1-.751.75h-9a.75.75 0 0 1-.75-.75v-2.3c0-.265.105-.519.291-.706zM10.75 4.75H5.5a.75.75 0 0 0-.75.75v5.25H3V5.5A2.5 2.5 0 0 1 5.5 3h5.25zM18.5 3A2.5 2.5 0 0 1 21 5.5v5.25h-1.75V5.5a.75.75 0 0 0-.75-.75h-5.25V3z" />
</svg>
